X:869
T:Reel with the Birl, The
T:Reel with the Beryl, The
R:reel
D:Catherine McEvoy, Caoimh\'in \'O Raghallaigh & M\'iche\'al \'O Raghallaigh
Z:id:hn-reel-869
M:C|
L:1/8
K:Edor
E2BE dEBE | dedB AGFD | E2BE dEBE |1 dedB A3D :|2 dedB A2FA ||
BA (3Bcd e3g | fddc d2ef | g3f gfeg | faaf afed |
fbba bafe | faaf afed | ~B3A BAFA | dcdB AGFD ||
P:variations
|: E2BE dEBE | E2BE AGFD | E2BE dEB2 |1 dcdB AGFD :|2 d2dB A4 ||
~B3d ~e3g | fdd2 d2ef | g4 g3e | fa~a2 afed |
~f3b bafe | fa~a2 afed | B3B BAFA | d2dB AGFD ||

